source/images/footer-icon-twitter.svg

<svg width="20" height="20" viewBox="0 0 20 20" xmlns="http://www.w3.org/2000/svg">
    <path d="M9.317 0C4.17 0 0 4.172 0 9.318c0 5.145 4.17 9.317 9.317 9.317 5.146 0 9.317-4.172 9.317-9.317C18.634 4.172 14.464 0 9.317 0zm4.193 7.364c.007.094.007.187.007.28 0 2.862-2.177 6.157-6.156 6.157-1.225 0-2.364-.354-3.322-.97.174.02.342.027.523.027 1.012 0 1.943-.342 2.686-.925-.95-.02-1.748-.643-2.022-1.5.134.02.267.034.408.034.195 0 .39-.027.57-.074-.992-.2-1.735-1.072-1.735-2.124V8.24c.288.163.623.263.978.276-.582-.388-.964-1.05-.964-1.8 0-.404.107-.772.295-1.094C5.84 6.935 7.44 7.792 9.237 7.886c-.035-.16-.054-.328-.054-.495 0-1.192.965-2.163 2.163-2.163.623 0 1.186.262 1.58.683.49-.093.96-.274 1.374-.522-.16.502-.502.924-.95 1.192.435-.047.856-.167 1.245-.335-.295.43-.663.81-1.085 1.12z" fill="#FFF" fill-rule="evenodd"/>
</svg>

<?xml version="1.0" encoding="UTF-8" standalone="no"?>
<svg width="20px" height="20px" viewBox="0 0 20 20" version="1.1" xmlns="http://www.w3.org/2000/svg" xmlns:xlink="http://www.w3.org/1999/xlink" xmlns:sketch="http://www.bohemiancoding.com/sketch/ns">
    <!-- Generator: Sketch 3.3.2 (12043) - http://www.bohemiancoding.com/sketch -->
    <title>footer-icon-twitter</title>
    <desc>Created with Sketch.</desc>
    <defs></defs>
    <g id="Page-1" stroke="none" stroke-width="1" fill="none" fill-rule="evenodd" sketch:type="MSPage">
        <g id="footer-icon-twitter" sketch:type="MSArtboardGroup" fill="#FFFFFF">
            <path d="M9.317,0 C4.171,0 0,4.172 0,9.318 C0,14.463 4.171,18.635 9.317,18.635 C14.463,18.635 18.634,14.463 18.634,9.318 C18.634,4.172 14.463,0 9.317,0 L9.317,0 Z M13.51,7.364 C13.517,7.458 13.517,7.551 13.517,7.645 C13.517,10.506 11.34,13.801 7.361,13.801 C6.135,13.801 4.996,13.446 4.038,12.83 C4.212,12.85 4.38,12.857 4.561,12.857 C5.572,12.857 6.503,12.515 7.246,11.932 C6.295,11.912 5.498,11.289 5.224,10.432 C5.358,10.452 5.491,10.466 5.632,10.466 C5.827,10.466 6.021,10.439 6.202,10.392 C5.21,10.191 4.467,9.32 4.467,8.268 L4.467,8.241 C4.755,8.403 5.09,8.503 5.445,8.516 C4.863,8.128 4.481,7.465 4.481,6.715 C4.481,6.312 4.587,5.944 4.775,5.622 C5.84,6.935 7.441,7.793 9.237,7.886 C9.202,7.726 9.183,7.558 9.183,7.391 C9.183,6.198 10.148,5.227 11.346,5.227 C11.969,5.227 12.532,5.489 12.927,5.91 C13.417,5.817 13.885,5.636 14.3,5.388 C14.14,5.89 13.798,6.312 13.349,6.58 C13.785,6.533 14.206,6.413 14.595,6.245 C14.3,6.674 13.932,7.056 13.51,7.364 L13.51,7.364 Z" id="Imported-Layers" sketch:type="MSShapeGroup"></path>
        </g>
    </g>
</svg>
